X: 30037
T: Off To California
R: hornpipe
M: 4/4
K: Gmajor
|:(3DEF|G>FG>B A>GE>D|G>Bd>g e2 (3def|g>fg>d e>dB>G|A>BA>G E2 (3DEF|
G>FG>B A>GE>D|G>Bd>g e2 (3def|g>fg>d e>dB>G|(3ABA G>F G2:|
|:(3def|g>fe>g f>ed>f|e>de>f e>dB>d|g>fg>d e>dB>G|A>BA>G E2 (3DEF|
G>FG>B A>GE>D|G>Bd>g e2 (3def|g>fg>d e>dB>G|(3ABA E>F G2:|

